img/star.svg

<svg width="8" height="8" viewBox="0 0 8 8" fill="none" xmlns="http://www.w3.org/2000/svg">
<path fill-rule="evenodd" clip-rule="evenodd" d="M4.00005 0.333328C4.12692 0.333328 4.2428 0.405352 4.29895 0.51912L5.25147 2.44882L7.38159 2.76017C7.50711 2.77851 7.61134 2.86652 7.65047 2.98718C7.68959 3.10785 7.65683 3.24027 7.56596 3.32878L6.02489 4.82978L6.38859 6.95031C6.41004 7.07538 6.35862 7.20177 6.25596 7.27635C6.1533 7.35092 6.0172 7.36075 5.9049 7.30169L4.00005 6.29994L2.0952 7.30169C1.9829 7.36075 1.8468 7.35092 1.74414 7.27635C1.64148 7.20177 1.59006 7.07538 1.61151 6.95031L1.97521 4.82978L0.434139 3.32878C0.343267 3.24027 0.310509 3.10785 0.349635 2.98718C0.388761 2.86652 0.492988 2.77851 0.618508 2.76017L2.74863 2.44882L3.70115 0.51912C3.7573 0.405352 3.87318 0.333328 4.00005 0.333328ZM4.00005 1.41975L3.26895 2.90087C3.22044 2.99915 3.12671 3.06731 3.01826 3.08316L1.38285 3.3222L2.56596 4.47454C2.64459 4.55112 2.68047 4.6615 2.66192 4.76968L2.38278 6.39722L3.8449 5.6283C3.94203 5.57723 4.05807 5.57723 4.1552 5.6283L5.61732 6.39722L5.33818 4.76968C5.31963 4.6615 5.35552 4.55112 5.43414 4.47454L6.61725 3.3222L4.98184 3.08316C4.87339 3.06731 4.77966 2.99915 4.73115 2.90087L4.00005 1.41975Z" fill="#F2994A"/>
<path d="M2.33333 5L1 3L3 2.66667L4 1L5 2.66667L7 3.33333L5.66667 4.66667L6 7L4 6L2 7L2.33333 5Z" fill="#F2994A"/>
</svg>

<svg width="8" height="8" fill="none" xmlns="http://www.w3.org/2000/svg"><path fill-rule="evenodd" clip-rule="evenodd" d="M4 .333c.127 0 .243.072.299.186l.952 1.93 2.13.311a.333.333 0 0 1 .185.569l-1.541 1.5.364 2.121a.333.333 0 0 1-.484.352L4 6.3 2.095 7.302a.333.333 0 0 1-.483-.352l.363-2.12-1.54-1.501a.333.333 0 0 1 .184-.569l2.13-.311L3.7.519A.333.333 0 0 1 4 .333zM4 1.42 3.269 2.9a.333.333 0 0 1-.25.183l-1.636.24 1.183 1.152a.333.333 0 0 1 .096.295l-.28 1.627 1.463-.769a.333.333 0 0 1 .31 0l1.462.77-.279-1.628a.333.333 0 0 1 .096-.295l1.183-1.153-1.635-.239a.333.333 0 0 1-.25-.182L4 1.42z" fill="#F2994A"/><path d="M2.333 5 1 3l2-.333L4 1l1 1.667 2 .666-1.333 1.334L6 7 4 6 2 7l.333-2z" fill="#F2994A"/></svg>
